X:12
T:Reel des citrouilles
C:Gilles Vigneault
Z:robin.beech@mcgill.ca
R:reel
M:4/4
L:1/8
K:Gmin
D2 |: G^FGA BABc | d^cd=e f2d2 | gfgb agfg | agf=e d3d |
edce dcBd | cBAc B2cB |1 AG^FG D2ed | cBAB GDE^F :|2 AG^FG DdcB | AG^FA G2dc |:
K:G
BdAd GdBG | cBAc BGBd | cBAc BdBG | AFGE D2dc |
BdAd GdBG | cBAc BGAB | cdef gedc |1 BGAF G2dc :|2  BGAF G2D2 |]

